X: 21905
T: Kit O'Mahoney's
R: hornpipe
M: 4/4
K: Gmajor
dc|{d}BdBG ABAG|{A}FGAB {e}cAFA|BGBd cAGF|DDG2 G2dc|
{d}BdBG ABAG|FGAB cA ag|ff/f/fd cAGF|DDG2 G2dc||
{d}BdBG ABAG|FGAB cAFA|DGBd cAGF|DDG2 G2dc|
{d}BdBd AdAG|FGAB cA ag|ff/f/fd cAGF|DDG2 GDB,D||
GABc d2g2|defd cAGF|GABc ddef|gagf d2ef|
gBdg fAdf|efed ^cd (3efg|fafd cAGF|DDG2 GDB,D||
GABc d2g2|defd cAGF|GABc ddef|gagf d2ef|
gBdg fAdf|efed ^cd (3efg|fafd cAGF|DDG2 GDB,D||

